X:12878
T:Pasucáis (CT 327)
C:Trad.
Z:Cancioneru de Torner 327
M:6/8
L:1/8
Q:1/4=120
K:G
 d3 Bdc |:BGB AFA | dBG Bdc | BGB AFA | G3 Bdc | BGB AFA | dBG Bdc 
| BGB AFA | G3 B2 c | 
 | def edc | d3 B2 c | def edc | g2 d B2 c | def edc | d3 B2 c | def edc
 | g2 d Bdc |
 | BGB AFA | dBG Bdc | BGB AFA | G3 Bdc | BGB AFA | dBG Bdc | BGB AFA |1
 G3 Bdc:|2 G3 d3 || 


